src/assets/icons/fa/viacoin.svg

<?xml version="1.0" encoding="utf-8"?>
<svg width="1792" height="1792" viewBox="0 0 1792 1792" xmlns="http://www.w3.org/2000/svg"><path d="M1664 0l-192 448h192v192h-274l-55 128h329v192h-411l-357 832-357-832h-411v-192h329l-55-128h-274v-192h192l-192-448h256l323 768h378l323-768h256zm-768 1216l108-256h-216z"/></svg>

<svg width="1792" height="1792" xmlns="http://www.w3.org/2000/svg"><path d="M1664 0l-192 448h192v192h-274l-55 128h329v192h-411l-357 832-357-832H128V768h329l-55-128H128V448h192L128 0h256l323 768h378L1408 0h256zM896 1216l108-256H788z"/></svg>
